X: 4503
T: Bonny Ship The Diamond, The
R: hornpipe
M: 4/4
K: Dmajor
ee|e2 e2 B2 c2|d3 c B2 ee|e2 e2 B2 c2|d4 z2 ee|
e2 e2 B2 c2|d3 c B2 G2|A2 B2 AG F2|E4 z2 ee|
e2 e2 B2 c2|d3 c B2 ee|e2 e2 B2 c2|d4 z2 ee|
e2 e2 B2 c2|d3 c B2 G2|A2 B2 AG F2|E4 E2 F2|
G4 F2 F2|E4 B2 c2|e4 B c3|e4 z2 Bc|
e2 B2 d3 c|B2 E2 F2 D2|E2 E2 F2 D2|E4 z4|

